src/icons/aws-ecr-repository.svg

<?xml version="1.0" encoding="UTF-8"?>
<svg xmlns="http://www.w3.org/2000/svg" xmlns:xlink="http://www.w3.org/1999/xlink" width="32" height="32" viewBox="0 0 32 32" version="1.1">
<defs>
<linearGradient id="linear0" gradientUnits="userSpaceOnUse" x1="0" y1="1" x2="1" y2="0" gradientTransform="matrix(32,0,0,32,0,0)">
<stop offset="0" style="stop-color:rgb(78.431374%,31.764707%,10.588235%);stop-opacity:1;"/>
<stop offset="1" style="stop-color:rgb(100%,60.000002%,0%);stop-opacity:1;"/>
</linearGradient>
</defs>
<g id="surface1">
<rect x="0" y="0" width="32" height="32" style="fill:url(#linear0);stroke:none;"/>
<path style=" stroke:none;fill-rule:evenodd;fill:rgb(100%,100%,100%);fill-opacity:1;" d="M 15.363281 14.960938 C 15.136719 15.089844 15 15.332031 15 15.59375 L 15 25.765625 L 7.5 21.429688 L 7.5 11.503906 L 16.085938 6.539062 L 23.542969 10.230469 Z M 24.851562 10.210938 C 24.851562 9.949219 24.714844 9.710938 24.460938 9.566406 L 16.441406 5.597656 C 16.214844 5.46875 15.941406 5.46875 15.714844 5.597656 L 6.863281 10.714844 C 6.640625 10.847656 6.5 11.089844 6.5 11.347656 L 6.5 21.585938 C 6.5 21.84375 6.640625 22.085938 6.863281 22.21875 L 14.90625 26.871094 C 15.015625 26.9375 15.144531 26.96875 15.273438 26.96875 C 15.675781 26.964844 16 26.640625 16 26.238281 L 16 15.75 L 24.488281 10.839844 C 24.714844 10.710938 24.851562 10.46875 24.851562 10.210938 M 25 21.46875 L 18.503906 25.765625 L 18.503906 22.203125 L 21.800781 19.707031 C 21.925781 19.613281 22 19.464844 22 19.308594 L 22 15.238281 L 25 13.503906 Z M 25.636719 12.398438 C 25.410156 12.269531 25.136719 12.269531 24.910156 12.398438 L 21.441406 14.40625 C 21.320312 14.472656 21 14.644531 21 15.015625 L 21 19.058594 L 17.832031 21.457031 C 17.628906 21.59375 17.503906 21.824219 17.503906 22.066406 L 17.503906 26.273438 C 17.503906 26.53125 17.640625 26.773438 17.867188 26.90625 C 17.976562 26.96875 18.097656 27 18.222656 27 C 18.355469 27 18.492188 26.964844 18.621094 26.890625 L 25.636719 22.25 C 25.859375 22.117188 26 21.878906 26 21.617188 L 26 13.03125 C 26 12.773438 25.863281 12.53125 25.636719 12.398438 M 25.636719 12.398438 "/>
</g>
</svg>

<svg role="img" viewBox="0 0 32 32" xmlns="http://www.w3.org/2000/svg" xmlns:xlink="http://www.w3.org/1999/xlink"><defs><linearGradient gradientTransform="scale(32)" gradientUnits="userSpaceOnUse" id="a" x1="0" x2="1" y1="1" y2="0"><stop offset="0" style="stop-color:rgb(78.431374%,31.764707%,10.588235%);stop-opacity:1"/><stop offset="1" style="stop-color:rgb(100%,60.000002%,0%);stop-opacity:1"/></linearGradient></defs><path d="M0 0h32v32H0z" style="fill:url(#a);stroke:none"/><path d="M15.363 14.96a.733.733 0 0 0-.363.634v10.172L7.5 21.43v-9.926l8.586-4.965 7.457 3.691Zm9.489-4.75c0-.26-.137-.5-.391-.644l-8.02-3.968a.73.73 0 0 0-.726 0l-8.852 5.117a.743.743 0 0 0-.363.633v10.238c0 .258.14.5.363.633l8.043 4.652a.718.718 0 0 0 .367.098.733.733 0 0 0 .727-.73V15.75l8.488-4.91a.723.723 0 0 0 .364-.63M25 21.47l-6.496 4.297v-3.563l3.297-2.496A.5.5 0 0 0 22 19.31v-4.07l3-1.735Zm.637-9.07a.73.73 0 0 0-.727 0l-3.469 2.007c-.12.067-.441.239-.441.61v4.043l-3.168 2.398a.73.73 0 0 0-.328.61v4.206c0 .258.137.5.363.633.11.063.23.094.356.094.132 0 .27-.035.398-.11l7.016-4.64a.743.743 0 0 0 .363-.633v-8.586a.733.733 0 0 0-.363-.633m0 0" style="stroke:none;fill-rule:evenodd;fill:rgb(100%,100%,100%);fill-opacity:1"/></svg>
